icon/cg/tennis.svg

<svg viewBox="0 0 24 24" fill="none" xmlns="http://www.w3.org/2000/svg" height="1em" width="1em">
  <path fill-rule="evenodd" clip-rule="evenodd" d="M19.0711 19.0711C22.9763 15.1658 22.9763 8.83418 19.0711 4.92893C15.1658 1.02369 8.83418 1.02369 4.92893 4.92893C1.02369 8.83418 1.02369 15.1658 4.92893 19.0711C8.83418 22.9763 15.1658 22.9763 19.0711 19.0711ZM19.9426 11.0407C19.7364 9.32374 18.9745 7.6608 17.6569 6.34315C16.3343 5.0206 14.6639 4.25792 12.9402 4.0551L12.93 4.11139C12.1086 8.58308 8.58304 12.1086 4.11136 12.93L4.05511 12.9402C4.25793 14.6639 5.02061 16.3343 6.34315 17.6569C7.66079 18.9745 9.32373 19.7364 11.0407 19.9426C11.0449 19.9191 11.0491 19.8956 11.0534 19.8721C11.8748 15.4004 15.4003 11.8748 19.872 11.0534C19.8955 11.0491 19.9191 11.0449 19.9426 11.0407ZM19.872 13.4292V13.0951C16.5073 13.8586 13.8586 16.5073 13.095 19.8721H13.429C14.9777 19.5924 16.4598 18.8539 17.6569 17.6569C18.8539 16.4598 19.5923 14.9778 19.872 13.4292ZM4.11136 10.8884L4.11136 10.666C4.37766 9.08301 5.12159 7.5647 6.34315 6.34315C7.56465 5.12165 9.08288 4.37773 10.6658 4.11139L10.8883 4.11139C10.1248 7.47615 7.47612 10.1249 4.11136 10.8884Z" fill="currentColor"/>
</svg>

<svg width="24" height="24" fill="none" xmlns="http://www.w3.org/2000/svg"><path fill-rule="evenodd" clip-rule="evenodd" d="M19.071 19.071c3.905-3.905 3.905-10.237 0-14.142-3.905-3.905-10.237-3.905-14.142 0-3.905 3.905-3.905 10.237 0 14.142 3.905 3.905 10.237 3.905 14.142 0Zm.872-8.03a7.966 7.966 0 0 0-2.286-4.698 7.966 7.966 0 0 0-4.717-2.288l-.01.056a11.011 11.011 0 0 1-8.819 8.819l-.056.01a7.966 7.966 0 0 0 2.288 4.717 7.966 7.966 0 0 0 4.698 2.286l.012-.07a11.011 11.011 0 0 1 8.819-8.82l.07-.012Zm-.071 2.388v-.334a9.013 9.013 0 0 0-6.777 6.777h.334a7.964 7.964 0 0 0 4.228-2.215 7.963 7.963 0 0 0 2.215-4.228Zm-15.76-2.54v-.223a7.963 7.963 0 0 1 2.231-4.323 7.964 7.964 0 0 1 4.323-2.232h.222a9.013 9.013 0 0 1-6.777 6.777Z" fill="currentColor"/></svg>
